X:1
T:Beyond the Sea (Mashaw)
T:Beyond the Sea (Mashaw)
T:Joseph Lincoln Hall
T:Frank H. Mashaw, 1900
T:Public Domain Courtesy of the Cyber Hymnal™
T:Public Domain Courtesy of the Cyber Hymnal™
C:Joseph Lincoln Hall
Z:Public Domain
Z:Courtesy of the Cyber Hymnal™
%%score ( 1 2 ) ( 3 4 )
L:1/8
Q:1/4=85
M:4/4
K:Eb
V:1 treble 
V:2 treble 
V:3 bass 
V:4 bass 
V:1
 G^FG | (z [EB])GF E x3 | z [B,D]F=E F x3 | z [DA]Bd c x3 | z [GB]B=A B x3 | z [Ge]BG E x3 | %6
w: 1.~Be- yond the|* sea that rolls|* be- tween This|* world of care|* and * things|* * un- seen,|
w: 2.~Be- yond the|* sea lies Heav’n’s|* fair shore, Where|* all of sin|* and * earth|* * are o’er;|
w: 3.~No more shall|* beat the flood|* of years A-|* cross these forms|* so * frail|* * and worn;|
w: 4.~Be- yond the|* sea there’s rest|* and peace; There|* Je- sus bids|* His * child-|* * ren come;|
 z [Ac]ed c x3 | z [DB][CA][B,G] [A,F] x3 | E4- !fermata![B,E] ||"^Refrain" B=AB | %10
w: * * There is|* * a land||* of end-|
w: * * Where care|* * and toil||* have passed|
w: * * No more|* * shall roll||* the sea|
w: * * Be- yond|* * the sea||* the tem-|
 (z [GB])[Ac][GB] [^F=A][GB] x2 | A4- [FA]AGA | z [Ac][FB][FA] [DF][FA] x2 | G4- [EG]B=AB | %14
w: * less day Where all|our tears are wiped a-|* way. * * *||
w: * a- way; Where wea-|ry feet no more shall|* stray. Be- yond the|sea, the rest- less roll-|
w: * of tears A- cross|these hearts by an- guish|* torn. * * *||
w: * pests cease; There an-|gels sing a “wel- come|* home.” * * *||
 z [GB][EG][EG] [EF]E x3 | c4- [Ac]edc | z [Ec][DA]C G[DF] x2 | E4- [B,E] |] %18
w: ||||
w: * ing sea, I hear|my loved ones gent- ly|* call- ing me; I|soon shall|
w: ||||
w: ||||
V:2
 x3 | B4- E E E x | D4- B, B, B, x | A4- D D D x | B4- G G G x | e4- G G A x | c4- A A A x | %7
 B4- E E E x | G, B, C C x || x3 | (e3 G G) x3 | F F F F x4 | (d3 A A) x3 | E E E E x4 | %14
 (e3 G G) x3 E | E E A A x4 | (B3 E E) x3 | B, B, _C C x |] %18
V:3
 z3 | z ([E,G,][E,G,][E,G,] [E,G,]) z3 | z ([B,,F,][B,,F,][B,,F,] [B,,F,]) z3 | %3
 z ([B,,F,][B,,F,][B,,F,] [B,,F,]) z3 | z ([E,E][E,E][E,E] [E,E]) z3 | %5
 z ([E,B,][E,B,][E,C] [E,B,]) z3 | z ([A,C][A,C][A,D] [A,E]) z3 | %7
 z [B,,G,][B,,G,][B,,G,] [B,,F,] z3 | (z [E,G,][E,A,][E,A,] !fermata![E,G,]) || z3 | %10
 z (E,E,)[E,E] [E,E][E,E][E,E][E,E] | ([B,D][B,D][B,D][B,D] [B,D]) z3 | %12
 z [B,F][B,F][B,E] [B,D][B,D][B,,B,][D,B,] | (B,B,C_C [E,B,]) z3 | %14
 z ([E,B,][E,B,])[E,E] [E,_D][E,D][F,D][G,D] x | ([A,C][A,C][A,E][A,E] [A,E]) z3 | %16
 z ([B,,G,][B,,G,])[B,,G,] [B,,F,] z2 [B,,A,] | ([E,G,][E,G,][E,A,][E,A,] [E,G,]) |] %18
V:4
 x3 | x8 | x8 | x8 | x8 | x8 | x8 | x8 | x5 || x3 | x8 | x8 | x8 | E,4- x4 | x9 | x8 | x8 | x5 |] %18

